packages/ui-icons/svg/Line/important-dates.svg

<svg viewBox="0 0 1920 1920" xmlns="http://www.w3.org/2000/svg">
    <g fill-rule="evenodd" clip-rule="evenodd">
        <path d="M213.333 451.765V282.353c0-31.172 22.275-56.471 53.334-56.471h178.821v56.471c0 31.172 25.299 56.47 56.471 56.47 31.172 0 56.471-25.298 56.471-56.47v-56.471h790.59v56.471c0 31.172 25.3 56.47 56.47 56.47 31.17 0 56.47-25.298 56.47-56.47v-56.471h191.37c31.06 0 53.34 25.299 53.34 56.471v169.412H213.333Zm0 1361.575 1493.337 6.25V570.973H213.333V1813.34ZM1653.33 112.941h-191.37v-56.47c0-31.172-25.3-56.471-56.47-56.471-31.17 0-56.47 25.299-56.47 56.47v56.471H558.431v-56.47C558.431 25.299 533.133 0 501.961 0S445.49 25.299 445.49 56.47v56.471H276.078c-93.402 0-169.411 76.01-169.411 169.412V1920H1813.33V266.667c0-93.403-66.59-153.726-160-153.726Z"/>
        <path d="m1019.51 1123.69-59.508-191.814-59.543 191.814H695.527l165.819 126.13-60.966 196.43 159.615-121.4 159.625 121.44-60.99-196.48 165.85-126.12h-204.97Zm289.03-29.84 39.67-12.5-.07-.09-39.67 12.37m39.79-12.41.07.09 36.51-11.51c4.92 15.61-.35 32.64-13.05 42.36l-220.15 167.43 84.07 270.85c4.87 15.71-.45 32.74-13.2 42.35-12.7 9.62-29.81 9.62-42.51-.05l-220.011-167.37-220.058 167.37c-6.374 4.84-13.803 7.25-21.232 7.25-7.429 0-14.858-2.41-21.183-7.2-12.75-9.61-18.12-26.64-13.251-42.3l84.077-270.9-220.108-167.43c-12.749-9.72-17.97-26.75-13.101-42.36 4.869-15.6 18.673-26.11 34.384-26.11h272.01l84.078-270.853c.005-.017-.005.018 0 0 4.884-15.631 18.741-26.17 34.384-26.17 15.711 0 29.515 10.51 34.434 26.118l7.467 24.133 76.56 246.772h272.01c15.71 0 29.52 10.51 34.38 26.11l-36.58 11.42Z"/>
    </g>
</svg>

<svg viewBox="0 0 1920 1920" version="1.1" xmlns="http://www.w3.org/2000/svg">
    <g fill-rule="evenodd" clip-rule="evenodd" stroke="none" stroke-width="1">
        <path d="M213.333 451.765V282.353C213.333 251.181 235.608 225.882 266.667 225.882H445.488V282.353C445.488 313.525 470.787 338.823 501.959 338.823C533.131 338.823 558.43 313.525 558.43 282.353V225.882H1349.02V282.353C1349.02 313.525 1374.32 338.823 1405.49 338.823C1436.66 338.823 1461.96 313.525 1461.96 282.353V225.882H1653.33C1684.39 225.882 1706.67 251.181 1706.67 282.353V451.765H213.333ZM213.333 1813.34L1706.67 1819.59V570.973H213.333V1813.34ZM1653.33 112.941H1461.96V56.4706C1461.96 25.2988 1436.66 0 1405.49 0C1374.32 0 1349.02 25.2988 1349.02 56.4706V112.941H558.431V56.4706C558.431 25.2988 533.133 0 501.961 0C470.789 0 445.49 25.2988 445.49 56.4706V112.941H276.078C182.676 112.941 106.667 188.951 106.667 282.353V451.765V564.706V1920H1813.33V266.667C1813.33 173.264 1746.74 112.941 1653.33 112.941Z"/>
        <path d="M1019.51 1123.69L960.002 931.876L900.459 1123.69H695.527L861.346 1249.82L800.38 1446.25L959.995 1324.85L1119.62 1446.29L1058.63 1249.81L1224.48 1123.69H1019.51ZM1308.54 1093.85L1348.21 1081.35L1348.14 1081.26L1308.47 1093.63M1348.26 1081.22L1348.33 1081.31L1384.84 1069.8C1389.76 1085.41 1384.49 1102.44 1371.79 1112.16L1151.64 1279.59L1235.71 1550.44C1240.58 1566.15 1235.26 1583.18 1222.51 1592.79C1209.81 1602.41 1192.7 1602.41 1180 1592.74L959.989 1425.37L739.931 1592.74C733.557 1597.58 726.128 1599.99 718.699 1599.99C711.27 1599.99 703.841 1597.58 697.516 1592.79C684.766 1583.18 679.396 1566.15 684.265 1550.49L768.342 1279.59L548.234 1112.16C535.485 1102.44 530.264 1085.41 535.133 1069.8C540.002 1054.2 553.806 1043.69 569.517 1043.69H841.527L925.605 772.837C925.61 772.82 925.6 772.855 925.605 772.837C930.489 757.206 944.346 746.667 959.989 746.667C975.7 746.667 989.504 757.177 994.423 772.785L1001.89 796.918L1078.45 1043.69H1350.46C1366.17 1043.69 1379.98 1054.2 1384.84 1069.8L1348.26 1081.22Z"/>
    </g>
</svg>
